svgs/light/train.svg

<svg xmlns="http://www.w3.org/2000/svg" viewBox="0 0 448 512"><!-- Font Awesome Pro 6.0.0-alpha2 by @fontawesome - https://fontawesome.com License - https://fontawesome.com/license (Commercial License) --><path d="M448 352V96C448 42.98 405.02 0 352 0H96C42.98 0 0 42.98 0 96V352C0 398.02 32.42 436.383 75.641 445.734L36.687 484.688C30.437 490.938 30.437 501.063 36.687 507.312C39.812 510.438 43.906 512 48 512S56.188 510.438 59.312 507.312L118.625 448H329.375L388.687 507.312C391.812 510.438 395.906 512 400 512S408.188 510.438 411.312 507.312C417.562 501.062 417.562 490.937 411.312 484.688L372.359 445.734C415.58 436.383 448 398.02 448 352ZM32 96C32 60.711 60.711 32 96 32H352C387.291 32 416 60.711 416 96V224H32V96ZM352 416H96C60.711 416 32 387.289 32 352V256H416V352C416 387.289 387.291 416 352 416ZM224 288C197.49 288 176 309.49 176 336S197.49 384 224 384S272 362.51 272 336S250.51 288 224 288ZM224 352C215.178 352 208 344.822 208 336S215.178 320 224 320S240 327.178 240 336S232.822 352 224 352Z"/></svg>

<svg xmlns="http://www.w3.org/2000/svg" viewBox="0 0 448 512"><!--! Font Awesome Pro 6.0.0-alpha3 by @fontawesome - https://fontawesome.com License - https://fontawesome.com/license (Commercial License) --><path d="M448 352V96c0-53.02-42.98-96-96-96H96C42.98 0 0 42.98 0 96v256c0 46.02 32.42 84.38 75.64 93.73l-38.95 38.95c-6.25 6.25-6.25 16.38 0 22.62C39.81 510.4 43.91 512 48 512s8.188-1.562 11.31-4.688L118.6 448h210.8l59.31 59.31C391.8 510.4 395.9 512 400 512s8.188-1.562 11.31-4.688c6.25-6.25 6.25-16.38 0-22.62l-38.95-38.95C415.6 436.4 448 398 448 352zM32 96c0-35.29 28.71-64 64-64h256c35.29 0 64 28.71 64 64v128H32V96zM352 416H96c-35.29 0-64-28.71-64-64V256h384v96C416 387.3 387.3 416 352 416zM224 288c-26.51 0-48 21.49-48 48S197.5 384 224 384s48-21.49 48-48S250.5 288 224 288zM224 352c-8.822 0-16-7.178-16-16S215.2 320 224 320s16 7.178 16 16S232.8 352 224 352z"/></svg>
